X: 63
T:Gan Ainm
M:4/4
L:1/8
C:Reel
K:G
d2BG dGBG | dcBc ADD2 | d2BG dBGB | cBAg fage |!
d2BG dGBG | dcBc ADD2 | d2BG dBGB | cBAB cdef ||!
gdBd edBd | g3b agef | gdBd edBG | cBAB cdef |!
gdBd edBd | g3b agef | gefd ecdB | cBAg fage ||
